**harm	**harte	**timestamp	**phrase	**leadinstrument	**kern
*M4/4	*M4/4	*	*	*	*
*A-:	*A-:	*	*	*	*A-:
1r;	N	0	.	r	1r;
=1	=1	=1	=1	=1	=1
*>A_intro	*>A_intro	*>A_intro	*>A_intro	*>A_intro	*>A_intro
2I	A-:maj	0.279	newline	guitar	2A- 2cc 2ee-
2V	E-:maj	2.069	.	guitar	2E- 2g 2b-
=2	=2	=2	=2	=2	=2
1IV	D-:maj	3.858	.	guitar	1D- 1f 1a-
=3	=3	=3	=3	=3	=3
2I	A-:maj	7.438	.	guitar	2A- 2cc 2ee-
2V	E-:maj	9.228	.	guitar	2E- 2g 2b-
=4	=4	=4	=4	=4	=4
1IV	D-:maj	11.018	.	guitar	1D- 1f 1a-
=5	=5	=5	=5	=5	=5
*>B_verse	*>B_verse	*>B_verse	*>B_verse	*>B_verse	*>B_verse
2I	A-:maj	14.598	newline	voice	2A- 2cc 2ee-
2V	E-:maj	16.384	.	voice	2E- 2g 2b-
=6	=6	=6	=6	=6	=6
2IV	D-:maj	18.169	.	voice	2D- 2f 2a-
2V	E-:maj	19.955	.	voice	2E- 2g 2b-
=7	=7	=7	=7	=7	=7
2I	A-:maj	21.74	.	voice	2A- 2cc 2ee-
2V	E-:maj	23.526	.	voice	2E- 2g 2b-
=8	=8	=8	=8	=8	=8
2IV	D-:maj	25.311	.	voice	2D- 2f 2a-
2V	E-:maj	27.097	.	voice	2E- 2g 2b-
=9	=9	=9	=9	=9	=9
2I	A-:maj	28.882	newline	voice	2A- 2cc 2ee-
2V	E-:maj	30.663	.	voice	2E- 2g 2b-
=10	=10	=10	=10	=10	=10
2IV	D-:maj	32.444	.	voice	2D- 2f 2a-
2V	E-:maj	34.225	.	voice	2E- 2g 2b-
=11	=11	=11	=11	=11	=11
2I	A-:maj	36.006	.	voice	2A- 2cc 2ee-
2V	E-:maj	37.787	.	voice	2E- 2g 2b-
=12	=12	=12	=12	=12	=12
2IV	D-:maj	39.568	.	voice	2D- 2f 2a-
2V	E-:maj	41.349	.	voice	2E- 2g 2b-
=13	=13	=13	=13	=13	=13
*>C_prechorus	*>C_prechorus	*>C_prechorus	*>C_prechorus	*>C_prechorus	*>C_prechorus
2vi	F:min	43.13	newline	voice	2F 2a- 2cc
2I	A-:maj	44.901	.	voice	2A- 2cc 2ee-
=14	=14	=14	=14	=14	=14
2ii	B-:min	46.672	.	voice	2B- 2dd- 2ff
2IV	D-:maj	48.442	.	voice	2D- 2f 2a-
=15	=15	=15	=15	=15	=15
1V	E-:maj	50.213	.	voice	1E- 1g 1b-
=16	=16	=16	=16	=16	=16
2IV	D-:maj	53.754	.	voice	2D- 2f 2a-
2V	E-:maj	55.525	.	voice	2E- 2g 2b-
=17	=17	=17	=17	=17	=17
*>D_chorus	*>D_chorus	*>D_chorus	*>D_chorus	*>D_chorus	*>D_chorus
2I	A-:maj	57.295	newline	voice	2A- 2cc 2ee-
2V	E-:maj	59.033	.	voice	2E- 2g 2b-
=18	=18	=18	=18	=18	=18
2IV	D-:maj	60.771	.	voice	2D- 2f 2a-
2V	E-:maj	62.509	.	voice	2E- 2g 2b-
=19	=19	=19	=19	=19	=19
2I	A-:maj	64.247	.	voice	2A- 2cc 2ee-
2V	E-:maj	65.985	.	voice	2E- 2g 2b-
=20	=20	=20	=20	=20	=20
2IV	D-:maj	67.723	.	voice	2D- 2f 2a-
2V	E-:maj	69.461	.	voice	2E- 2g 2b-
=21	=21	=21	=21	=21	=21
2I	A-:maj	71.199	newline	voice	2A- 2cc 2ee-
2V	E-:maj	72.944	.	voice	2E- 2g 2b-
=22	=22	=22	=22	=22	=22
2vi	F:min	74.689	.	voice	2F 2a- 2cc
2IV	D-:maj	76.433	.	voice	2D- 2f 2a-
=23	=23	=23	=23	=23	=23
2I	A-:maj	78.178	.	voice	2A- 2cc 2ee-
2V	E-:maj	79.923	.	voice	2E- 2g 2b-
=24	=24	=24	=24	=24	=24
1IV	D-:maj	81.668	.	voice	1D- 1f 1a-
=25	=25	=25	=25	=25	=25
*>A2_trans	*>A2_trans	*>A2_trans	*>A2_trans	*>A2_trans	*>A2_trans
2I	A-:maj	85.157	newline	guitar	2A- 2cc 2ee-
2V	E-:maj	86.888	.	guitar	2E- 2g 2b-
=26	=26	=26	=26	=26	=26
2.IV	D-:maj	88.619	.	guitar	2D- 2f 2a-
4V	E-:maj	91.216	.	guitar	4E- 4g 4b-
=27	=27	=27	=27	=27	=27
*>B_verse	*>B_verse	*>B_verse	*>B_verse	*>B_verse	*>B_verse
2I	A-:maj	92.081	newline	voice	2A- 2cc 2ee-
2V	E-:maj	93.821	.	voice	2E- 2g 2b-
=28	=28	=28	=28	=28	=28
2IV	D-:maj	95.561	.	voice	2D- 2f 2a-
2V	E-:maj	97.301	.	voice	2E- 2g 2b-
=29	=29	=29	=29	=29	=29
2I	A-:maj	99.04	.	voice	2A- 2cc 2ee-
2V	E-:maj	100.78	.	voice	2E- 2g 2b-
=30	=30	=30	=30	=30	=30
2IV	D-:maj	102.52	.	voice	2D- 2f 2a-
2V	E-:maj	104.26	.	voice	2E- 2g 2b-
=31	=31	=31	=31	=31	=31
2I	A-:maj	105.999	newline	voice	2A- 2cc 2ee-
2V	E-:maj	107.724	.	voice	2E- 2g 2b-
=32	=32	=32	=32	=32	=32
2.IV	D-:maj	109.449	.	voice	2D- 2f 2a-
4V	E-:maj	112.037	.	voice	4E- 4g 4b-
=33	=33	=33	=33	=33	=33
2I	A-:maj	112.899	.	voice	2A- 2cc 2ee-
2V	E-:maj	114.624	.	voice	2E- 2g 2b-
=34	=34	=34	=34	=34	=34
2IV	D-:maj	116.349	.	voice	2D- 2f 2a-
2V	E-:maj	118.074	.	voice	2E- 2g 2b-
=35	=35	=35	=35	=35	=35
*>C_prechorus	*>C_prechorus	*>C_prechorus	*>C_prechorus	*>C_prechorus	*>C_prechorus
2vi	F:min	119.799	newline	voice	2F 2a- 2cc
2I	A-:maj	121.505	.	voice	2A- 2cc 2ee-
=36	=36	=36	=36	=36	=36
2ii	B-:min	123.212	.	voice	2B- 2dd- 2ff
2IV	D-:maj	124.918	.	voice	2D- 2f 2a-
=37	=37	=37	=37	=37	=37
1V	E-:maj	126.625	.	voice	1E- 1g 1b-
=38	=38	=38	=38	=38	=38
2IV	D-:maj	130.038	.	voice	2D- 2f 2a-
2V	E-:maj	131.745	.	voice	2E- 2g 2b-
=39	=39	=39	=39	=39	=39
*>D_chorus	*>D_chorus	*>D_chorus	*>D_chorus	*>D_chorus	*>D_chorus
2I	A-:maj	133.452	newline	voice	2A- 2cc 2ee-
2V	E-:maj	135.166	.	voice	2E- 2g 2b-
=40	=40	=40	=40	=40	=40
2IV	D-:maj	136.881	.	voice	2D- 2f 2a-
2V	E-:maj	138.596	.	voice	2E- 2g 2b-
=41	=41	=41	=41	=41	=41
2I	A-:maj	140.31	.	voice	2A- 2cc 2ee-
2V	E-:maj	142.025	.	voice	2E- 2g 2b-
=42	=42	=42	=42	=42	=42
2IV	D-:maj	143.74	.	voice	2D- 2f 2a-
2V	E-:maj	145.454	.	voice	2E- 2g 2b-
=43	=43	=43	=43	=43	=43
2I	A-:maj	147.169	newline	voice	2A- 2cc 2ee-
2V	E-:maj	148.857	.	voice	2E- 2g 2b-
=44	=44	=44	=44	=44	=44
2vi	F:min	150.545	.	voice	2F 2a- 2cc
2IV	D-:maj	152.233	.	voice	2D- 2f 2a-
=45	=45	=45	=45	=45	=45
2I	A-:maj	153.921	.	voice	2A- 2cc 2ee-
2V	E-:maj	155.608	.	voice	2E- 2g 2b-
=46	=46	=46	=46	=46	=46
2.IV	D-:maj	157.296	.	voice	2D- 2f 2a-
4V	E-:maj	159.828	.	voice	4E- 4g 4b-
=47	=47	=47	=47	=47	=47
*>A_trans	*>A_trans	*>A_trans	*>A_trans	*>A_trans	*>A_trans
2I	A-:maj	160.672	newline	guitar	2A- 2cc 2ee-
2V	E-:maj	162.351	.	guitar	2E- 2g 2b-
=48	=48	=48	=48	=48	=48
2.IV	D-:maj	164.03	.	guitar	2D- 2f 2a-
4V	E-:maj	166.549	.	guitar	4E- 4g 4b-
=49	=49	=49	=49	=49	=49
2I	A-:maj	167.388	.	guitar	2A- 2cc 2ee-
2V	E-:maj	169.067	.	guitar	2E- 2g 2b-
=50	=50	=50	=50	=50	=50
2.IV	D-:maj	170.746	.	guitar	2D- 2f 2a-
4V	E-:maj	173.265	.	guitar	4E- 4g 4b-
=51	=51	=51	=51	=51	=51
*>C_prechorus	*>C_prechorus	*>C_prechorus	*>C_prechorus	*>C_prechorus	*>C_prechorus
2vi	F:min	174.104	newline	voice	2F 2a- 2cc
2I	A-:maj	175.801	.	voice	2A- 2cc 2ee-
=52	=52	=52	=52	=52	=52
2ii	B-:min	177.497	.	voice	2B- 2dd- 2ff
2IV	D-:maj	179.194	.	voice	2D- 2f 2a-
=53	=53	=53	=53	=53	=53
1V	E-:maj	180.89	.	voice	1E- 1g 1b-
=54	=54	=54	=54	=54	=54
1IV	D-:maj	184.283	.	voice	1D- 1f 1a-
=55	=55	=55	=55	=55	=55
*M2/4	*M2/4	*M2/4	*M2/4	*M2/4	*M2/4
2IV	D-:maj	187.676	.	voice	2D- 2f 2a-
=56	=56	=56	=56	=56	=56
*>D2_chorus	*>D2_chorus	*>D2_chorus	*>D2_chorus	*>D2_chorus	*>D2_chorus
*M4/4	*M4/4	*M4/4	*M4/4	*M4/4	*M4/4
2I	A-:maj	189.373	newline	voice	2A- 2cc 2ee-
2V	E-:maj	191.066	.	voice	2E- 2g 2b-
=57	=57	=57	=57	=57	=57
2IV	D-:maj	192.759	.	voice	2D- 2f 2a-
2V	E-:maj	194.452	.	voice	2E- 2g 2b-
=58	=58	=58	=58	=58	=58
2I	A-:maj	196.145	.	voice	2A- 2cc 2ee-
2V	E-:maj	197.838	.	voice	2E- 2g 2b-
=59	=59	=59	=59	=59	=59
2IV	D-:maj	199.531	.	voice	2D- 2f 2a-
2V	E-:maj	201.224	.	voice	2E- 2g 2b-
=60	=60	=60	=60	=60	=60
2I	A-:maj	202.917	newline	voice	2A- 2cc 2ee-
2V	E-:maj	204.59	.	voice	2E- 2g 2b-
=61	=61	=61	=61	=61	=61
2vi	F:min	206.264	.	voice	2F 2a- 2cc
2IV	D-:maj	207.937	.	voice	2D- 2f 2a-
=62	=62	=62	=62	=62	=62
2I	A-:maj	209.61	.	voice	2A- 2cc 2ee-
2V	E-:maj	211.283	.	voice	2E- 2g 2b-
=63	=63	=63	=63	=63	=63
1IV	D-:maj	212.956	.	voice	1D- 1f 1a-
=64	=64	=64	=64	=64	=64
2I	A-:maj	216.302	newline	voice	2A- 2cc 2ee-
2V	E-:maj	217.969	.	voice	2E- 2g 2b-
=65	=65	=65	=65	=65	=65
2IV	D-:maj	219.637	.	voice	2D- 2f 2a-
2V	E-:maj	221.304	.	voice	2E- 2g 2b-
=66	=66	=66	=66	=66	=66
2I	A-:maj	222.971	.	voice	2A- 2cc 2ee-
2V	E-:maj	224.639	.	voice	2E- 2g 2b-
=67	=67	=67	=67	=67	=67
2IV	D-:maj	226.306	.	voice	2D- 2f 2a-
2V	E-:maj	227.973	.	voice	2E- 2g 2b-
=68	=68	=68	=68	=68	=68
2I	A-:maj	229.64	newline	voice	2A- 2cc 2ee-
2Vf	E-:maj/4	231.316	.	voice	2E- 2g 2b-
=69	=69	=69	=69	=69	=69
2IVc	D-:maj/5	232.991	.	voice	2d- 2f 2A-
2Vf	E-:maj/4	234.666	.	voice	2E- 2g 2b-
=70	=70	=70	=70	=70	=70
1I	A-:maj	236.341	.	voice	1A- 1cc 1ee-
1r;	N	243.879	.	r	1r;
1r;	N	246.309	.	r	1r;
*-	*-	*-	*-	*-	*-
!!!OTL: Just Like Jesse James
!!!COC: Cher
!!!BillboardChartDate: 1989/12/30
!!!BillboardPeak: 8
!!!BillboardWeeksOnChart: 18
!!!SampleTargetRank: 7
!!!SampleActualRank: 8
!!!SampleID#: 0821
!!!RDF**harmony: **recip + pitch class of root + harmonic quality
!!!RDF**harte: Chris Harte's syntax, used by MIREX
!!!RDF**phrase: newline = linebreak in original McGill transcription
!!!RDF**timestamp: McGill audio timestamp in seconds
!!!RDF**leadinstrument: original McGill primary instrumentation annotation
!!!RDT: 2017/01/12/
!!!ENC: Nathaniel Condit-Schultz
!!!EST: Awating manual error checking and editing.
